dist/svg/static/address-book-large.svg

<svg xmlns="http://www.w3.org/2000/svg" width="48" height="48" viewBox="0 0 48 48"><g fill="none" stroke="currentColor"><g stroke-miterlimit="10"><path d="M4.5 2.5h32v43h-32zm32 28h3.985a2.018 2.018 0 0 1 2.015 2.009V43.49a2.018 2.018 0 0 1-2.015 2.009H36.5m0-28.999h3.985a2.008 2.008 0 0 1 2.015 1.99V28.5a2.017 2.017 0 0 1-2.015 2H36.5"/><path d="M36.5 2.5h3.985A2.008 2.008 0 0 1 42.5 4.49V14.5a2.017 2.017 0 0 1-2.015 2H36.5"/></g><path d="M11.5 35.5v-9a3.007 3.007 0 0 1 2.997-3h11.006a2.999 2.999 0 0 1 2.997 3v9h-17zm7-24h2.939a3.061 3.061 0 0 1 3.061 3.061V17.5a3 3 0 0 1-3 3h-3a3 3 0 0 1-3-3v-3a3 3 0 0 1 3-3z"/></g></svg>

<?xml version="1.0" encoding="UTF-8" standalone="no"?>
<svg width="48px" height="48px" viewBox="0 0 48 48" version="1.1" xmlns="http://www.w3.org/2000/svg" xmlns:xlink="http://www.w3.org/1999/xlink">
    <!-- Generator: sketchtool 46.2 (44496) - http://www.bohemiancoding.com/sketch -->
    <title>address-book-large</title>
    <desc>Created with sketchtool.</desc>
    <defs></defs>
    <g id="icons-published" stroke="none" stroke-width="1" fill="none" fill-rule="evenodd">
        <g id="briefing" transform="translate(-864.000000, -26.000000)"></g>
        <g id="address-book-large" stroke="#000000">
            <path d="M4.5,2.5 L36.5,2.5 L36.5,45.5 L4.5,45.5 L4.5,2.5 Z M36.5,30.5 L40.5,30.5 C41.6,30.5 42.5,31.4 42.5,32.5 L42.5,43.5 C42.5,44.6 41.6,45.5 40.5,45.5 L36.5,45.5 L36.5,30.5 Z M36.5,16.5 L40.5,16.5 C41.6,16.5 42.5,17.4 42.5,18.5 L42.5,28.5 C42.5,29.6 41.6,30.5 40.5,30.5 L36.5,30.5 L36.5,16.5 Z" id="Shape"></path>
            <path d="M36.5,2.5 L40.5,2.5 C41.6,2.5 42.5,3.4 42.5,4.5 L42.5,14.5 C42.5,15.6 41.6,16.5 40.5,16.5 L36.5,16.5" id="Shape"></path>
            <path d="M11.5,35.5 L11.5,26.5 C11.5,24.8 12.8,23.5 14.5,23.5 L25.5,23.5 C27.2,23.5 28.5,24.8 28.5,26.5 L28.5,35.5 C28.5,35.5 11.5,35.5 11.5,35.5 Z M18.5,11.5 L21.4,11.5 C23.1,11.5 24.5,12.9 24.5,14.6 L24.5,14.6 L24.5,17.5 C24.5,19.2 23.2,20.5 21.5,20.5 L18.5,20.5 C16.8,20.5 15.5,19.2 15.5,17.5 L15.5,14.5 C15.5,12.8 16.8,11.5 18.5,11.5 Z" id="Shape"></path>
        </g>
    </g>
</svg>
